X: 27780
T: Morpeth Lasses, The
R: reel
M: 4/4
K: Aminor
E|:A>BcB EAA2|B>AGA BAAB|A>BcB EAAe|1 dBGB cAAE:|2 dBGB cAAe||
agea gea2|g>edg BGd2|agea gea2|g>ede AEA2|
agea gea2|g>edg BGd2|AcBd ceda|gegB A2A2||

